SF_Symbols/nose.fill.svg

<?xml version="1.0" encoding="UTF-8"?>
<svg xmlns="http://www.w3.org/2000/svg" xmlns:xlink="http://www.w3.org/1999/xlink" width="24" height="24" viewBox="0 0 24 24" version="1.1">
<g id="surface1">
<path style=" stroke:none;fill-rule:nonzero;fill:rgb(100%,100%,100%);fill-opacity:1;" d="M 0.210938 18.714844 C 0.210938 19.707031 0.425781 20.570312 0.855469 21.304688 C 1.285156 22.046875 1.886719 22.621094 2.660156 23.027344 C 3.441406 23.441406 4.351562 23.648438 5.390625 23.648438 C 5.859375 23.648438 6.332031 23.574219 6.808594 23.425781 C 7.285156 23.277344 7.6875 23.078125 8.015625 22.828125 C 7.757812 22.648438 7.511719 22.445312 7.277344 22.21875 C 7.042969 21.992188 6.773438 21.6875 6.46875 21.304688 C 6.335938 21.359375 6.179688 21.40625 6 21.445312 C 5.828125 21.484375 5.652344 21.503906 5.472656 21.503906 C 4.988281 21.503906 4.59375 21.375 4.289062 21.117188 C 3.992188 20.867188 3.84375 20.542969 3.84375 20.144531 C 3.84375 19.761719 3.972656 19.453125 4.230469 19.21875 C 4.488281 18.976562 4.828125 18.855469 5.25 18.855469 C 5.617188 18.855469 5.9375 18.953125 6.210938 19.148438 C 6.492188 19.34375 6.769531 19.59375 7.042969 19.898438 C 7.441406 20.335938 7.851562 20.769531 8.273438 21.199219 C 8.703125 21.628906 9.210938 21.988281 9.796875 22.277344 C 10.390625 22.566406 11.125 22.710938 12 22.710938 C 12.875 22.710938 13.605469 22.566406 14.191406 22.277344 C 14.777344 21.988281 15.285156 21.628906 15.714844 21.199219 C 16.144531 20.769531 16.558594 20.335938 16.957031 19.898438 C 17.230469 19.59375 17.503906 19.34375 17.777344 19.148438 C 18.058594 18.953125 18.382812 18.855469 18.75 18.855469 C 19.164062 18.855469 19.5 18.976562 19.757812 19.21875 C 20.023438 19.453125 20.15625 19.761719 20.15625 20.144531 C 20.15625 20.542969 20.003906 20.867188 19.699219 21.117188 C 19.402344 21.375 19.007812 21.503906 18.515625 21.503906 C 18.34375 21.503906 18.167969 21.484375 17.988281 21.445312 C 17.816406 21.40625 17.660156 21.359375 17.519531 21.304688 C 17.222656 21.6875 16.953125 21.992188 16.710938 22.21875 C 16.476562 22.445312 16.234375 22.648438 15.984375 22.828125 C 16.3125 23.078125 16.710938 23.277344 17.179688 23.425781 C 17.65625 23.574219 18.132812 23.648438 18.609375 23.648438 C 19.648438 23.648438 20.554688 23.441406 21.328125 23.027344 C 22.109375 22.621094 22.714844 22.046875 23.144531 21.304688 C 23.574219 20.570312 23.789062 19.707031 23.789062 18.714844 C 23.789062 17.777344 23.574219 16.933594 23.144531 16.183594 C 22.722656 15.425781 22.125 14.808594 21.351562 14.332031 C 20.578125 13.847656 19.675781 13.550781 18.644531 13.441406 C 18.347656 12.746094 18.070312 12.035156 17.8125 11.308594 C 17.554688 10.582031 17.316406 9.847656 17.097656 9.105469 C 16.878906 8.355469 16.671875 7.609375 16.476562 6.867188 C 16.289062 6.117188 16.109375 5.375 15.9375 4.640625 C 15.671875 3.445312 15.222656 2.539062 14.589844 1.921875 C 13.957031 1.304688 13.09375 0.996094 12 0.996094 C 10.90625 0.996094 10.042969 1.304688 9.410156 1.921875 C 8.777344 2.539062 8.328125 3.445312 8.0625 4.640625 C 7.890625 5.375 7.707031 6.117188 7.511719 6.867188 C 7.324219 7.609375 7.117188 8.355469 6.890625 9.105469 C 6.671875 9.847656 6.433594 10.582031 6.175781 11.308594 C 5.925781 12.035156 5.652344 12.746094 5.355469 13.441406 C 4.316406 13.550781 3.410156 13.847656 2.636719 14.332031 C 1.871094 14.808594 1.273438 15.425781 0.84375 16.183594 C 0.421875 16.933594 0.210938 17.777344 0.210938 18.714844 Z M 0.210938 18.714844 "/>
</g>
</svg>

<svg xmlns="http://www.w3.org/2000/svg" width="24" height="24"><path style="stroke:none;fill-rule:nonzero;fill:#fff;fill-opacity:1" d="M.21 18.715c0 .992.216 1.855.645 2.59a4.406 4.406 0 0 0 1.805 1.722c.781.414 1.692.621 2.73.621.47 0 .942-.074 1.419-.222a3.876 3.876 0 0 0 1.207-.598 6.116 6.116 0 0 1-.739-.61 9.945 9.945 0 0 1-.808-.913c-.133.054-.29.101-.469.14-.172.04-.348.059-.527.059-.485 0-.88-.129-1.184-.387a1.216 1.216 0 0 1-.445-.972c0-.383.129-.692.386-.926.258-.242.598-.364 1.02-.364.367 0 .688.098.96.293.282.196.56.446.833.75.398.438.809.872 1.23 1.301.43.43.938.79 1.524 1.078.594.29 1.328.434 2.203.434.875 0 1.605-.145 2.191-.434a5.708 5.708 0 0 0 1.524-1.078c.43-.43.844-.863 1.242-1.3.273-.305.547-.555.82-.75.282-.196.606-.294.973-.294.414 0 .75.122 1.008.364.265.234.398.543.398.926.008.378-.16.738-.457.972-.297.258-.691.387-1.183.387-.172 0-.348-.02-.528-.059a3.238 3.238 0 0 1-.468-.14 7.82 7.82 0 0 1-.81.914 6.003 6.003 0 0 1-.726.61c.329.25.727.448 1.196.597.476.148.953.222 1.43.222 1.038 0 1.945-.207 2.718-.62a4.387 4.387 0 0 0 1.817-1.723c.43-.735.644-1.598.644-2.59 0-.938-.215-1.781-.644-2.531a5.002 5.002 0 0 0-1.793-1.852c-.774-.484-1.676-.781-2.707-.89-.301-.704-.579-1.415-.832-2.133a42.609 42.609 0 0 1-.715-2.204c-.215-.742-.422-1.488-.621-2.238-.184-.742-.364-1.484-.54-2.226-.265-1.196-.714-2.102-1.347-2.72-.633-.616-1.496-.925-2.59-.925-1.094 0-1.957.309-2.59.926-.633.617-1.082 1.523-1.348 2.719-.175.746-.359 1.488-.55 2.226-.192.75-.399 1.496-.621 2.238a42.608 42.608 0 0 1-.715 2.204c-.25.726-.524 1.437-.82 2.132-1.04.11-1.946.407-2.72.891a5.154 5.154 0 0 0-1.792 1.852c-.422.75-.633 1.593-.633 2.53Zm0 0"/></svg>
